X:1
T:America the Beautiful
M:4/4
L:1/4
K:G
 D| G3/2 F/2 G A| B/2c/2 d2 c| B3/2 A/2 G F| G3| d| G3/2 F/2 G A| B/2c/2 d2 B|\
 A3/2 G/2 F E| D3| D| c3/2 c/2 B G| F/2G/2 A2 D| c3/2 c/2 B G| A3|\
 D| G3/2 F/2 G A| B/2c/2 d2 c| B3/2 A/2 G F| G3| D| G3/2 F/2 G A| B/2c/2 d2 e|\
 d3/2 c/2 B A| G3||
